apps/32/preferences-desktop-display.svg

<?xml version="1.0" encoding="UTF-8" standalone="no"?>
<!-- Created with Inkscape (http://www.inkscape.org/) -->

<svg
   width="32"
   height="32"
   version="1.1"
   viewBox="0 0 32 32"
   id="svg22"
   sodipodi:docname="preferences-desktop-display.svg"
   inkscape:version="1.1.2 (0a00cf5339, 2022-02-04)"
   xmlns:inkscape="http://www.inkscape.org/namespaces/inkscape"
   xmlns:sodipodi="http://sodipodi.sourceforge.net/DTD/sodipodi-0.dtd"
   xmlns:xlink="http://www.w3.org/1999/xlink"
   xmlns="http://www.w3.org/2000/svg"
   xmlns:svg="http://www.w3.org/2000/svg">
  <sodipodi:namedview
     id="namedview24"
     pagecolor="#ffffff"
     bordercolor="#666666"
     borderopacity="1.0"
     inkscape:showpageshadow="2"
     inkscape:pageopacity="0.0"
     inkscape:pagecheckerboard="0"
     inkscape:deskcolor="#d1d1d1"
     showgrid="false"
     inkscape:zoom="9.8"
     inkscape:cx="13.673469"
     inkscape:cy="15.255102"
     inkscape:window-width="1920"
     inkscape:window-height="999"
     inkscape:window-x="0"
     inkscape:window-y="0"
     inkscape:window-maximized="1"
     inkscape:current-layer="svg22"
     inkscape:pageshadow="2" />
  <defs
     id="defs12">
    <linearGradient
       inkscape:collect="always"
       id="linearGradient917">
      <stop
         style="stop-color:#000000;stop-opacity:0.99607843"
         offset="0"
         id="stop913" />
      <stop
         style="stop-color:#353a3f;stop-opacity:0.99607843"
         offset="1"
         id="stop915" />
    </linearGradient>
    <linearGradient
       id="linearGradient1005-3-3"
       x1="5.2535"
       x2="9.3823996"
       y1="15.383"
       y2="2.9421"
       gradientTransform="matrix(0.99999,0,0,0.99999,1.632,-0.61743)"
       gradientUnits="userSpaceOnUse">
      <stop
         stop-color="#fa8200"
         offset="0"
         id="stop2" />
      <stop
         stop-color="#ff9600"
         offset=".36953"
         id="stop4" />
      <stop
         stop-color="#ffb400"
         offset="1"
         id="stop6" />
    </linearGradient>
    <filter
       id="filter4014"
       x="-0.062499933"
       y="-0.057692993"
       width="1.1249999"
       height="1.115386"
       color-interpolation-filters="sRGB">
      <feGaussianBlur
         stdDeviation="1.093751"
         id="feGaussianBlur9" />
    </filter>
    <linearGradient
       inkscape:collect="always"
       xlink:href="#linearGradient3487"
       id="linearGradient3403"
       gradientUnits="userSpaceOnUse"
       x1="6.9491749"
       y1="4.5549412"
       x2="11.215498"
       y2="59.052471" />
    <linearGradient
       id="linearGradient3487">
      <stop
         style="stop-color:#32373c;stop-opacity:1"
         offset="0"
         id="stop3481" />
      <stop
         id="stop3483"
         offset="0.36804965"
         style="stop-color:#1a1a1a;stop-opacity:1" />
      <stop
         style="stop-color:#31363b;stop-opacity:1"
         offset="1"
         id="stop3485" />
    </linearGradient>
    <linearGradient
       inkscape:collect="always"
       xlink:href="#linearGradient20604"
       id="linearGradient20558"
       gradientUnits="userSpaceOnUse"
       x1="25.802212"
       y1="20.373846"
       x2="25.111048"
       y2="58.912758" />
    <linearGradient
       id="linearGradient20604">
      <stop
         id="stop20598"
         offset="0"
         style="stop-color:#3d3d3d;stop-opacity:1" />
      <stop
         style="stop-color:#000000;stop-opacity:1"
         offset="0.61772454"
         id="stop20600" />
      <stop
         id="stop20602"
         offset="1"
         style="stop-color:#3d3d3d;stop-opacity:1" />
    </linearGradient>
    <filter
       inkscape:collect="always"
       style="color-interpolation-filters:sRGB"
       id="filter20720"
       x="-0.017024755"
       y="-0.016457183"
       width="1.0340491"
       height="1.0329144">
      <feGaussianBlur
         inkscape:collect="always"
         stdDeviation="0.14745661"
         id="feGaussianBlur20722" />
    </filter>
    <linearGradient
       gradientTransform="translate(0.36067797,-0.13016949)"
       xlink:href="#linearGradient4555"
       id="linearGradient4557"
       x1="43.499737"
       y1="64.011795"
       x2="44.141731"
       y2="0.30621234"
       gradientUnits="userSpaceOnUse" />
    <linearGradient
       id="linearGradient4555">
      <stop
         style="stop-color:#141618;stop-opacity:1"
         offset="0"
         id="stop4551" />
      <stop
         id="stop4559"
         offset="0.51820582"
         style="stop-color:#686868;stop-opacity:1" />
      <stop
         style="stop-color:#31363b;stop-opacity:1"
         offset="1"
         id="stop4553" />
    </linearGradient>
    <filter
       style="color-interpolation-filters:sRGB"
       id="filter4601"
       x="-0.030244955"
       width="1.0604899"
       y="-0.030100647"
       height="1.0602013">
      <feGaussianBlur
         stdDeviation="0.014790289"
         id="feGaussianBlur4603" />
    </filter>
    <linearGradient
       inkscape:collect="always"
       xlink:href="#linearGradient917"
       id="linearGradient919"
       x1="7.400631"
       y1="41.743092"
       x2="33.063145"
       y2="7.1074457"
       gradientUnits="userSpaceOnUse"
       gradientTransform="matrix(0.65778194,0,0,0.65778194,0.25915095,0.21650764)" />
    <linearGradient
       id="g"
       y1="547.79999"
       y2="536.79999"
       x2="0"
       gradientUnits="userSpaceOnUse"
       gradientTransform="matrix(1,0,0,0.54545,-384.57,-255.8)">
      <stop
         stop-color="#c6cdd1"
         id="stop27" />
      <stop
         offset="1"
         stop-color="#e0e5e7"
         id="stop29" />
    </linearGradient>
    <linearGradient
       id="h"
       y1="536.79999"
       y2="503.79999"
       x2="0"
       gradientUnits="userSpaceOnUse"
       gradientTransform="translate(-384.57,-499.8)">
      <stop
         stop-color="#2a2c2f"
         id="stop32" />
      <stop
         offset="1"
         stop-color="#424649"
         id="stop34" />
    </linearGradient>
    <linearGradient
       xlink:href="#c"
       id="i"
       gradientUnits="userSpaceOnUse"
       gradientTransform="matrix(1,0,0,1.03448,-384.571,-517.24)"
       y1="534.79797"
       x2="0"
       y2="505.798" />
    <linearGradient
       id="c">
      <stop
         stop-color="#60a5e7"
         stop-opacity="0"
         id="stop7" />
      <stop
         offset="1"
         stop-color="#a6f3fb"
         stop-opacity=".258"
         id="stop9" />
    </linearGradient>
  </defs>
  <rect
     style="display:inline;fill:url(#linearGradient919);fill-opacity:1;fill-rule:evenodd;stroke:none;stroke-width:0.610303;stroke-linejoin:round;stroke-miterlimit:7.8"
     id="rect1192"
     width="27.682491"
     height="28.095253"
     x="2.3396564"
     y="2.2020156"
     ry="0"
     inkscape:label="arriere" />
  <g
     id="g856"
     transform="matrix(0.62121313,0,0,0.65778194,1.4203021,-0.00333679)">
    <path
       d="m 18,37 v 6 h 12 v -6 z"
       id="path45"
       style="fill:url(#g)"
       inkscape:connector-curvature="0" />
    <rect
       height="36"
       y="4"
       width="32"
       ry="5"
       rx="5"
       id="rect47"
       style="fill:url(#h)"
       x="0" />
    <path
       d="m 13,42 h 22 v 2 H 13 Z"
       id="path49"
       inkscape:connector-curvature="0"
       style="fill:#99a1a7" />
    <path
       d="m 5.004,6.002 a 2.987,2.987 0 0 0 -3,2.988 V 35.998 H 45.998 V 8.982 A 2.985,2.985 0 0 0 45.128,6.877 3.003,3.003 0 0 0 43.004,6.002 Z"
       id="path51"
       inkscape:connector-curvature="0"
       style="fill:#ffffff" />
    <path
       d="m 5.004,6.002 a 2.987,2.987 0 0 0 -3,2.988 V 35.998 H 45.998 V 8.982 A 2.984,2.984 0 0 0 45.128,6.877 3.003,3.003 0 0 0 43.004,6.002 Z"
       id="path53"
       style="fill:url(#i)"
       inkscape:connector-curvature="0" />
  </g>
  <path
     style="display:inline;mix-blend-mode:normal;fill:url(#linearGradient3403);fill-opacity:1;stroke:url(#linearGradient20558);stroke-width:1.16242;stroke-linecap:butt;stroke-linejoin:round;stroke-miterlimit:4;stroke-dasharray:none;stroke-opacity:1;filter:url(#filter20720)"
     d="M 4.7043071,3.9814882 4.6913695,60.80196 H 58.59546 l 1.022155,-2.866369 c 0,0 -23.87537,0.766388 -32.844441,-4.140386 C 16.257548,48.042344 11.401114,4.0978197 11.401114,4.0978197 Z"
     id="path1686"
     sodipodi:nodetypes="ccccscc"
     transform="matrix(0.49457289,0,0,0.49457289,0.32473488,0.23287744)"
     inkscape:label="folder" />
  <rect
     style="display:inline;fill:none;fill-opacity:1;stroke:url(#linearGradient4557);stroke-width:3.71366;stroke-linejoin:round;stroke-miterlimit:7.8;stroke-dasharray:none;stroke-opacity:0.995146;filter:url(#filter4601)"
     id="rect4539"
     width="62.566689"
     height="62.866646"
     x="1.0323594"
     y="0.59551275"
     ry="6.2447233"
     rx="5.8029528"
     transform="matrix(0.46330735,0,0,0.46236302,1.1556977,1.2322587)"
     inkscape:label="contour" />
</svg>

<svg width="32" height="32" version="1.1" viewBox="0 0 32 32" xmlns="http://www.w3.org/2000/svg" xmlns:xlink="http://www.w3.org/1999/xlink">
<defs>
<linearGradient id="linearGradient3403" x1="6.9492" x2="11.215" y1="4.5549" y2="59.052" gradientUnits="userSpaceOnUse">
<stop style="stop-color:#32373c" offset="0"/>
<stop style="stop-color:#1a1a1a" offset=".36805"/>
<stop style="stop-color:#31363b" offset="1"/>
</linearGradient>
<linearGradient id="linearGradient20558" x1="25.802" x2="25.111" y1="20.374" y2="58.913" gradientUnits="userSpaceOnUse">
<stop style="stop-color:#3d3d3d" offset="0"/>
<stop offset=".61772"/>
<stop style="stop-color:#3d3d3d" offset="1"/>
</linearGradient>
<linearGradient id="linearGradient4557" x1="43.5" x2="44.142" y1="64.012" y2=".30621" gradientTransform="translate(.36068 -.13017)" gradientUnits="userSpaceOnUse">
<stop style="stop-color:#141618" offset="0"/>
<stop style="stop-color:#686868" offset=".51821"/>
<stop style="stop-color:#31363b" offset="1"/>
</linearGradient>
<linearGradient id="linearGradient919" x1="7.4006" x2="33.063" y1="41.743" y2="7.1074" gradientTransform="matrix(.65778 0 0 .65778 .25915 .21651)" gradientUnits="userSpaceOnUse">
<stop style="stop-opacity:.99608" offset="0"/>
<stop style="stop-color:#353a3f;stop-opacity:.99608" offset="1"/>
</linearGradient>
<linearGradient id="g" x2="0" y1="547.8" y2="536.8" gradientTransform="matrix(1 0 0 .54545 -384.57 -255.8)" gradientUnits="userSpaceOnUse">
<stop stop-color="#c6cdd1" offset="0"/>
<stop stop-color="#e0e5e7" offset="1"/>
</linearGradient>
<linearGradient id="h" x2="0" y1="536.8" y2="503.8" gradientTransform="translate(-384.57,-499.8)" gradientUnits="userSpaceOnUse">
<stop stop-color="#2a2c2f" offset="0"/>
<stop stop-color="#424649" offset="1"/>
</linearGradient>
<linearGradient id="i" x2="0" y1="534.8" y2="505.8" gradientTransform="matrix(1 0 0 1.0345 -384.57 -517.24)" gradientUnits="userSpaceOnUse">
<stop stop-color="#60a5e7" stop-opacity="0" offset="0"/>
<stop stop-color="#a6f3fb" stop-opacity=".258" offset="1"/>
</linearGradient>
</defs>
<rect x="2.3397" y="2.202" width="27.682" height="28.095" ry="0" style="fill-rule:evenodd;fill:url(#linearGradient919)"/>
<g transform="matrix(.62121 0 0 .65778 1.4203 -.0033368)">
<path d="m18 37v6h12v-6z" style="fill:url(#g)"/>
<rect y="4" width="32" height="36" rx="5" ry="5" style="fill:url(#h)"/>
<path d="m13 42h22v2h-22z" style="fill:#99a1a7"/>
<path d="m5.004 6.002a2.987 2.987 0 0 0-3 2.988v27.008h43.994v-27.016a2.985 2.985 0 0 0-0.87-2.105 3.003 3.003 0 0 0-2.124-0.875z" style="fill:#fff"/>
<path d="m5.004 6.002a2.987 2.987 0 0 0-3 2.988v27.008h43.994v-27.016a2.984 2.984 0 0 0-0.87-2.105 3.003 3.003 0 0 0-2.124-0.875z" style="fill:url(#i)"/>
</g>
<path transform="matrix(.49457 0 0 .49457 .32473 .23288)" d="m4.7043 3.9815-0.012938 56.82h53.904l1.0222-2.8664s-23.875 0.76639-32.844-4.1404c-10.516-5.7529-15.372-49.697-15.372-49.697z" style="fill:url(#linearGradient3403);mix-blend-mode:normal;stroke-linejoin:round;stroke-width:1.1624;stroke:url(#linearGradient20558)"/>
<rect transform="matrix(.46331 0 0 .46236 1.1557 1.2323)" x="1.0324" y=".59551" width="62.567" height="62.867" rx="5.803" ry="6.2447" style="fill:none;stroke-linejoin:round;stroke-miterlimit:7.8;stroke-opacity:.99515;stroke-width:3.7137;stroke:url(#linearGradient4557)"/>
</svg>
